icons/quantum_computing_patterns/quantum_clustering-thin.svg

<?xml version="1.0" encoding="UTF-8" standalone="no"?>
<svg
   width="204.20255"
   height="204.82251"
   xml:space="preserve"
   overflow="hidden"
   version="1.1"
   id="svg25"
   sodipodi:docname="quantum_clustering-thin.svg"
   inkscape:version="1.4.3 (0d15f75, 2025-12-25)"
   xmlns:inkscape="http://www.inkscape.org/namespaces/inkscape"
   xmlns:sodipodi="http://sodipodi.sourceforge.net/DTD/sodipodi-0.dtd"
   xmlns="http://www.w3.org/2000/svg"
   xmlns:svg="http://www.w3.org/2000/svg"><defs
     id="defs25" /><sodipodi:namedview
     id="namedview25"
     pagecolor="#ffffff"
     bordercolor="#000000"
     borderopacity="0.25"
     inkscape:showpageshadow="2"
     inkscape:pageopacity="0.0"
     inkscape:pagecheckerboard="0"
     inkscape:deskcolor="#d1d1d1"
     inkscape:zoom="0.82885431"
     inkscape:cx="353.5"
     inkscape:cy="353.5"
     inkscape:window-width="1440"
     inkscape:window-height="830"
     inkscape:window-x="-6"
     inkscape:window-y="-6"
     inkscape:window-maximized="1"
     inkscape:current-layer="svg25" /><g
     transform="matrix(0.28899998,0,0,0.2898774,-11.331237,-14.264413)"
     id="g25"><path
       d="m 41.5001,168.502 c 0,-64.618 52.3837,-117.0019 117.0019,-117.0019 h 467.996 c 64.618,0 117.002,52.3839 117.002,117.0019 V 636.498 C 743.5,701.116 691.116,753.5 626.498,753.5 H 158.502 C 93.8838,753.5 41.5001,701.116 41.5001,636.498 Z"
       stroke="#000000"
       stroke-width="4.58333"
       stroke-miterlimit="8"
       fill="#f2f2f2"
       fill-rule="evenodd"
       id="path1" /><path
       d="M 2.29166,-0.00342935 3.11665,551.296 -1.46667,551.303 -2.29166,0.00342935 Z M 14.5681,546.696 0.859285,574.217 -12.9319,546.737 Z"
       fill="#404040"
       transform="matrix(1,0,0,-1,112.5,686.716)"
       id="path2" /><path
       d="M 0.00666109,-2.29166 568.34,-0.6397 568.326,3.94361 -0.00666109,2.29166 Z M 563.79,-12.1113 591.25,1.71857 563.71,15.3886 Z"
       fill="#404040"
       transform="matrix(1,0,0,-1,86.5001,657.219)"
       id="path3" /><path
       d="m 181.672,383.591 c 26.657,-7.328 60.995,33.035 76.698,90.154 15.702,57.118 6.823,109.363 -19.834,116.691 -26.656,7.328 -60.995,-33.035 -76.697,-90.154 -15.703,-57.118 -6.823,-109.363 19.833,-116.691 z"
       stroke="#404040"
       stroke-width="4.58333"
       stroke-miterlimit="8"
       fill="#ffffff"
       fill-rule="evenodd"
       id="path4" /><path
       d="m 438.776,406.627 c 83.044,-22.83 163.684,7.116 180.115,66.885 16.431,59.77 -37.568,126.73 -120.612,149.559 -83.043,22.83 -163.683,-7.116 -180.115,-66.886 -16.431,-59.769 37.569,-126.729 120.612,-149.558 z"
       stroke="#404040"
       stroke-width="4.58333"
       stroke-miterlimit="8"
       fill="#ffffff"
       fill-rule="evenodd"
       id="path5" /><text
       fill="#ffffff"
       font-family="Calibri, Calibri_MSFontService, sans-serif"
       font-weight="400"
       font-size="83px"
       transform="rotate(74.628468,-111.04278,537.37542)"
       id="text5">&lt;</text><path
       d="m 263.361,198.626 c 47.07,-54.125 120.54,-67.292 164.101,-29.409 43.56,37.882 40.715,112.469 -6.355,166.593 -47.07,54.125 -120.54,67.293 -164.1,29.41 -43.561,-37.882 -40.716,-112.469 6.354,-166.594 z"
       stroke="#404040"
       stroke-width="4.58333"
       stroke-miterlimit="8"
       fill="#ffffff"
       fill-rule="evenodd"
       id="path6" /><path
       d="m 557.5,511 c 0,-9.113 7.611,-16.5 17,-16.5 9.389,0 17,7.387 17,16.5 0,9.113 -7.611,16.5 -17,16.5 -9.389,0 -17,-7.387 -17,-16.5 z"
       stroke="#404040"
       stroke-width="4.58333"
       stroke-miterlimit="8"
       fill="#404040"
       fill-rule="evenodd"
       id="path7" /><path
       d="m 520.5,575 c 0,-9.113 7.611,-16.5 17,-16.5 9.389,0 17,7.387 17,16.5 0,9.113 -7.611,16.5 -17,16.5 -9.389,0 -17,-7.387 -17,-16.5 z"
       stroke="#404040"
       stroke-width="4.58333"
       stroke-miterlimit="8"
       fill="#404040"
       fill-rule="evenodd"
       id="path8" /><path
       d="m 422.5,589 c 0,-9.113 7.611,-16.5 17,-16.5 9.389,0 17,7.387 17,16.5 0,9.112 -7.611,16.5 -17,16.5 -9.389,0 -17,-7.388 -17,-16.5 z"
       stroke="#404040"
       stroke-width="4.58333"
       stroke-miterlimit="8"
       fill="#404040"
       fill-rule="evenodd"
       id="path9" /><path
       d="m 412.5,471 c 0,-9.113 7.611,-16.5 17,-16.5 9.389,0 17,7.387 17,16.5 0,9.113 -7.611,16.5 -17,16.5 -9.389,0 -17,-7.387 -17,-16.5 z"
       stroke="#404040"
       stroke-width="4.58333"
       stroke-miterlimit="8"
       fill="#404040"
       fill-rule="evenodd"
       id="path10" /><path
       d="m 478.5,440 c 0,-9.113 7.611,-16.5 17,-16.5 9.389,0 17,7.387 17,16.5 0,9.113 -7.611,16.5 -17,16.5 -9.389,0 -17,-7.387 -17,-16.5 z"
       stroke="#404040"
       stroke-width="4.58333"
       stroke-miterlimit="8"
       fill="#404040"
       fill-rule="evenodd"
       id="path11" /><path
       d="m 338.5,550 c 0,-9.113 7.611,-16.5 17,-16.5 9.389,0 17,7.387 17,16.5 0,9.113 -7.611,16.5 -17,16.5 -9.389,0 -17,-7.387 -17,-16.5 z"
       stroke="#404040"
       stroke-width="4.58333"
       stroke-miterlimit="8"
       fill="#404040"
       fill-rule="evenodd"
       id="path12" /><path
       d="m 197.5,529.5 c 0,-9.389 7.611,-17 17,-17 9.389,0 17,7.611 17,17 0,9.389 -7.611,17 -17,17 -9.389,0 -17,-7.611 -17,-17 z"
       stroke="#404040"
       stroke-width="4.58333"
       stroke-miterlimit="8"
       fill="#404040"
       fill-rule="evenodd"
       id="path13" /><path
       d="m 184.5,451 c 0,-9.113 7.611,-16.5 17,-16.5 9.389,0 17,7.387 17,16.5 0,9.113 -7.611,16.5 -17,16.5 -9.389,0 -17,-7.387 -17,-16.5 z"
       stroke="#404040"
       stroke-width="4.58333"
       stroke-miterlimit="8"
       fill="#404040"
       fill-rule="evenodd"
       id="path14" /><path
       d="m 356.5,282 c 0,-9.113 7.611,-16.5 17,-16.5 9.389,0 17,7.387 17,16.5 0,9.113 -7.611,16.5 -17,16.5 -9.389,0 -17,-7.387 -17,-16.5 z"
       stroke="#404040"
       stroke-width="4.58333"
       stroke-miterlimit="8"
       fill="#404040"
       fill-rule="evenodd"
       id="path15" /><path
       d="m 417.5,241.5 c 0,-9.389 7.611,-17 17,-17 9.389,0 17,7.611 17,17 0,9.389 -7.611,17 -17,17 -9.389,0 -17,-7.611 -17,-17 z"
       stroke="#404040"
       stroke-width="4.58333"
       stroke-miterlimit="8"
       fill="#404040"
       fill-rule="evenodd"
       id="path16" /><path
       d="m 348.5,195 c 0,-9.113 7.611,-16.5 17,-16.5 9.389,0 17,7.387 17,16.5 0,9.113 -7.611,16.5 -17,16.5 -9.389,0 -17,-7.387 -17,-16.5 z"
       stroke="#404040"
       stroke-width="4.58333"
       stroke-miterlimit="8"
       fill="#404040"
       fill-rule="evenodd"
       id="path17" /><path
       d="m 277.5,220.5 c 0,-9.389 7.611,-17 17,-17 9.389,0 17,7.611 17,17 0,9.389 -7.611,17 -17,17 -9.389,0 -17,-7.611 -17,-17 z"
       stroke="#404040"
       stroke-width="4.58333"
       stroke-miterlimit="8"
       fill="#404040"
       fill-rule="evenodd"
       id="path18" /><path
       d="m 245.5,329 c 0,-9.113 7.611,-16.5 17,-16.5 9.389,0 17,7.387 17,16.5 0,9.113 -7.611,16.5 -17,16.5 -9.389,0 -17,-7.387 -17,-16.5 z"
       stroke="#404040"
       stroke-width="4.58333"
       stroke-miterlimit="8"
       fill="#404040"
       fill-rule="evenodd"
       id="path19" /><path
       d="m 321.5,351 c 0,-9.113 7.611,-16.5 17,-16.5 9.389,0 17,7.387 17,16.5 0,9.113 -7.611,16.5 -17,16.5 -9.389,0 -17,-7.387 -17,-16.5 z"
       stroke="#404040"
       stroke-width="4.58333"
       stroke-miterlimit="8"
       fill="#404040"
       fill-rule="evenodd"
       id="path20" /><g
       id="g24"><g
         id="g23"><g
           id="g22"><path
             d="m 619.541,197.5 c 0,9.907 -8.031,17.937 -17.938,17.937 -9.907,0 -17.937,-8.03 -17.937,-17.937 0,-9.907 8.03,-17.938 17.937,-17.938 9.907,0 17.938,8.031 17.938,17.938 z"
             fill="#404040"
             id="path21" /><path
             d="m 706.836,137.708 c -5.082,-8.669 -16.442,-12.855 -31.988,-12.855 -9.866,0 -21.226,1.794 -33.782,5.082 -8.67,-31.3902 -23.02,-52.0184 -39.463,-52.0184 -16.144,0 -30.793,20.3292 -39.163,51.4204 -11.959,-2.989 -22.721,-4.783 -32.288,-4.783 -15.546,0 -26.906,4.186 -31.989,12.855 -8.37,14.35 2.691,37.37 25.711,60.689 -22.123,22.721 -32.288,44.844 -24.216,58.895 5.083,8.67 16.443,12.855 31.989,12.855 8.969,0 19.432,-1.495 30.793,-4.185 8.669,31.091 23.019,51.42 39.163,51.42 16.144,0 30.793,-20.329 39.164,-51.42 11.958,2.989 22.72,4.783 32.287,4.783 15.546,0 26.906,-4.186 31.989,-12.855 8.072,-14.051 -2.093,-36.174 -24.216,-58.895 23.618,-23.618 34.38,-46.638 26.009,-60.988 z m -31.988,-0.897 c 11.061,0 19.133,2.691 21.525,6.876 4.484,7.773 -3.588,26.01 -23.917,46.339 -7.175,-6.577 -15.247,-13.154 -24.215,-19.432 -0.897,-10.165 -2.392,-20.03 -4.485,-29.298 11.361,-2.99 22.123,-4.485 31.092,-4.485 z m -53.514,91.781 c -6.278,3.587 -12.556,6.876 -18.834,9.865 -6.278,-2.989 -12.556,-6.278 -18.834,-9.865 -5.98,-3.588 -11.959,-7.175 -17.34,-10.763 -0.598,-6.577 -0.598,-13.154 -0.598,-20.329 0,-6.577 0.299,-12.855 0.598,-19.133 5.979,-4.186 12.257,-8.072 19.133,-11.959 5.681,-3.288 11.361,-6.278 17.041,-8.968 5.68,2.69 11.36,5.68 17.041,8.968 5.979,3.588 11.958,7.175 17.339,10.763 0.598,6.577 0.598,13.154 0.598,20.329 0,7.474 -0.299,14.649 -0.897,21.525 -4.783,3.289 -9.865,6.278 -15.247,9.567 z m 13.752,5.68 c -0.896,5.68 -1.793,11.36 -2.69,16.443 -5.083,-1.794 -10.464,-3.588 -15.845,-5.98 3.587,-1.793 7.175,-3.886 10.762,-5.979 2.691,-1.495 5.382,-2.989 7.773,-4.484 z m -46.637,10.463 c -5.979,2.392 -11.66,4.485 -17.34,6.279 -1.196,-5.681 -2.092,-11.66 -2.989,-17.938 3.288,2.093 6.278,3.886 9.865,5.979 3.289,1.794 6.876,3.887 10.464,5.68 z m -34.38,-35.875 c -4.784,-3.587 -8.969,-7.175 -12.856,-10.762 3.887,-3.588 8.371,-7.175 12.856,-10.763 0,3.289 -0.299,6.577 -0.299,10.165 0,3.886 0,7.773 0.299,11.36 z m 13.752,-45.74 c 0.897,-6.577 1.794,-12.855 2.989,-18.835 5.681,1.794 11.66,4.186 17.639,6.577 -2.99,1.495 -6.278,3.289 -9.268,5.083 -3.587,2.391 -7.474,4.783 -11.36,7.175 z m 48.431,-12.258 c 5.381,-2.391 10.763,-4.185 16.144,-5.979 1.196,5.382 2.092,11.062 2.989,17.041 -3.288,-2.093 -6.278,-3.887 -9.865,-5.979 -2.99,-1.495 -5.979,-3.289 -9.268,-5.083 z m 32.885,35.278 c 5.382,4.185 10.165,8.071 14.649,12.257 -4.484,3.886 -9.267,8.072 -14.649,11.958 0.299,-4.185 0.299,-8.371 0.299,-12.556 0,-4.185 0,-8.072 -0.299,-11.659 z M 601.603,89.875 c 8.969,0 20.628,15.845 28.102,43.349 -8.67,2.99 -17.937,6.577 -27.205,10.762 -9.866,-4.484 -19.432,-8.37 -28.7,-11.36 7.474,-27.205 18.834,-42.751 27.803,-42.751 z m -93.275,53.812 c 2.691,-4.484 10.464,-6.876 21.525,-6.876 8.67,0 18.535,1.495 29.298,4.186 -2.093,9.567 -3.588,20.03 -4.484,30.793 -8.371,5.979 -15.845,11.958 -22.422,18.236 -20.031,-20.329 -28.401,-38.566 -23.917,-46.339 z m 23.319,114.502 c -11.062,0 -19.134,-2.691 -21.525,-6.877 -4.485,-7.772 3.288,-25.112 22.422,-44.843 6.876,5.979 14.35,11.958 22.422,17.937 0.896,10.464 2.391,20.628 4.484,29.896 -9.866,2.691 -19.432,3.887 -27.803,3.887 z m 69.956,46.936 c -8.969,0 -20.329,-15.546 -27.803,-42.452 9.268,-2.99 18.834,-6.577 28.7,-11.062 9.268,4.186 18.236,7.773 26.906,10.464 -7.474,27.504 -18.834,43.05 -27.803,43.05 z m 93.275,-53.813 c -2.691,4.485 -10.463,6.877 -21.525,6.877 -8.67,0 -18.834,-1.495 -29.298,-4.186 1.794,-8.969 3.289,-18.236 4.186,-28.401 8.968,-6.278 17.04,-12.556 24.215,-19.133 19.134,19.731 26.906,37.071 22.422,44.843 z"
             fill="#404040"
             id="path22" /></g></g></g></g></svg>

<svg width="723" height="723" xmlns="http://www.w3.org/2000/svg" xmlns:xlink="http://www.w3.org/1999/xlink" xml:space="preserve" overflow="hidden"><g transform="translate(-31 -41)"><path d="M41.5001 168.502C41.5001 103.884 93.8838 51.5001 158.502 51.5001L626.498 51.5001C691.116 51.5001 743.5 103.884 743.5 168.502L743.5 636.498C743.5 701.116 691.116 753.5 626.498 753.5L158.502 753.5C93.8838 753.5 41.5001 701.116 41.5001 636.498Z" stroke="#000000" stroke-width="20.625" stroke-miterlimit="8" fill="#F2F2F2" fill-rule="evenodd"/><path d="M2.29166-0.00342935 3.11665 551.296-1.46667 551.303-2.29166 0.00342935ZM14.5681 546.696 0.859285 574.217-12.9319 546.737Z" fill="#404040" transform="matrix(1 0 0 -1 112.5 686.716)"/><path d="M0.00666109-2.29166 568.34-0.6397 568.326 3.94361-0.00666109 2.29166ZM563.79-12.1113 591.25 1.71857 563.71 15.3886Z" fill="#404040" transform="matrix(1 0 0 -1 86.5001 657.219)"/><path d="M181.672 383.591C208.329 376.263 242.667 416.626 258.37 473.745 274.072 530.863 265.193 583.108 238.536 590.436 211.88 597.764 177.541 557.401 161.839 500.282 146.136 443.164 155.016 390.919 181.672 383.591Z" stroke="#404040" stroke-width="4.58333" stroke-miterlimit="8" fill="#FFFFFF" fill-rule="evenodd"/><path d="M438.776 406.627C521.82 383.797 602.46 413.743 618.891 473.512 635.322 533.282 581.323 600.242 498.279 623.071 415.236 645.901 334.596 615.955 318.164 556.185 301.733 496.416 355.733 429.456 438.776 406.627Z" stroke="#404040" stroke-width="4.58333" stroke-miterlimit="8" fill="#FFFFFF" fill-rule="evenodd"/><text fill="#FFFFFF" font-family="Calibri,Calibri_MSFontService,sans-serif" font-weight="400" font-size="83" transform="matrix(0.265077 0.964227 -0.964227 0.265077 436.544 502)">&lt;</text><path d="M263.361 198.626C310.431 144.501 383.901 131.334 427.462 169.217 471.022 207.099 468.177 281.686 421.107 335.81 374.037 389.935 300.567 403.103 257.007 365.22 213.446 327.338 216.291 252.751 263.361 198.626Z" stroke="#404040" stroke-width="4.58333" stroke-miterlimit="8" fill="#FFFFFF" fill-rule="evenodd"/><path d="M557.5 511C557.5 501.887 565.111 494.5 574.5 494.5 583.889 494.5 591.5 501.887 591.5 511 591.5 520.113 583.889 527.5 574.5 527.5 565.111 527.5 557.5 520.113 557.5 511Z" stroke="#404040" stroke-width="4.58333" stroke-miterlimit="8" fill="#404040" fill-rule="evenodd"/><path d="M520.5 575C520.5 565.887 528.111 558.5 537.5 558.5 546.889 558.5 554.5 565.887 554.5 575 554.5 584.113 546.889 591.5 537.5 591.5 528.111 591.5 520.5 584.113 520.5 575Z" stroke="#404040" stroke-width="4.58333" stroke-miterlimit="8" fill="#404040" fill-rule="evenodd"/><path d="M422.5 589C422.5 579.887 430.111 572.5 439.5 572.5 448.889 572.5 456.5 579.887 456.5 589 456.5 598.112 448.889 605.5 439.5 605.5 430.111 605.5 422.5 598.112 422.5 589Z" stroke="#404040" stroke-width="4.58333" stroke-miterlimit="8" fill="#404040" fill-rule="evenodd"/><path d="M412.5 471C412.5 461.887 420.111 454.5 429.5 454.5 438.889 454.5 446.5 461.887 446.5 471 446.5 480.113 438.889 487.5 429.5 487.5 420.111 487.5 412.5 480.113 412.5 471Z" stroke="#404040" stroke-width="4.58333" stroke-miterlimit="8" fill="#404040" fill-rule="evenodd"/><path d="M478.5 440C478.5 430.887 486.111 423.5 495.5 423.5 504.889 423.5 512.5 430.887 512.5 440 512.5 449.113 504.889 456.5 495.5 456.5 486.111 456.5 478.5 449.113 478.5 440Z" stroke="#404040" stroke-width="4.58333" stroke-miterlimit="8" fill="#404040" fill-rule="evenodd"/><path d="M338.5 550C338.5 540.887 346.111 533.5 355.5 533.5 364.889 533.5 372.5 540.887 372.5 550 372.5 559.113 364.889 566.5 355.5 566.5 346.111 566.5 338.5 559.113 338.5 550Z" stroke="#404040" stroke-width="4.58333" stroke-miterlimit="8" fill="#404040" fill-rule="evenodd"/><path d="M197.5 529.5C197.5 520.111 205.111 512.5 214.5 512.5 223.889 512.5 231.5 520.111 231.5 529.5 231.5 538.889 223.889 546.5 214.5 546.5 205.111 546.5 197.5 538.889 197.5 529.5Z" stroke="#404040" stroke-width="4.58333" stroke-miterlimit="8" fill="#404040" fill-rule="evenodd"/><path d="M184.5 451C184.5 441.887 192.111 434.5 201.5 434.5 210.889 434.5 218.5 441.887 218.5 451 218.5 460.113 210.889 467.5 201.5 467.5 192.111 467.5 184.5 460.113 184.5 451Z" stroke="#404040" stroke-width="4.58333" stroke-miterlimit="8" fill="#404040" fill-rule="evenodd"/><path d="M356.5 282C356.5 272.887 364.111 265.5 373.5 265.5 382.889 265.5 390.5 272.887 390.5 282 390.5 291.113 382.889 298.5 373.5 298.5 364.111 298.5 356.5 291.113 356.5 282Z" stroke="#404040" stroke-width="4.58333" stroke-miterlimit="8" fill="#404040" fill-rule="evenodd"/><path d="M417.5 241.5C417.5 232.111 425.111 224.5 434.5 224.5 443.889 224.5 451.5 232.111 451.5 241.5 451.5 250.889 443.889 258.5 434.5 258.5 425.111 258.5 417.5 250.889 417.5 241.5Z" stroke="#404040" stroke-width="4.58333" stroke-miterlimit="8" fill="#404040" fill-rule="evenodd"/><path d="M348.5 195C348.5 185.887 356.111 178.5 365.5 178.5 374.889 178.5 382.5 185.887 382.5 195 382.5 204.113 374.889 211.5 365.5 211.5 356.111 211.5 348.5 204.113 348.5 195Z" stroke="#404040" stroke-width="4.58333" stroke-miterlimit="8" fill="#404040" fill-rule="evenodd"/><path d="M277.5 220.5C277.5 211.111 285.111 203.5 294.5 203.5 303.889 203.5 311.5 211.111 311.5 220.5 311.5 229.889 303.889 237.5 294.5 237.5 285.111 237.5 277.5 229.889 277.5 220.5Z" stroke="#404040" stroke-width="4.58333" stroke-miterlimit="8" fill="#404040" fill-rule="evenodd"/><path d="M245.5 329C245.5 319.887 253.111 312.5 262.5 312.5 271.889 312.5 279.5 319.887 279.5 329 279.5 338.113 271.889 345.5 262.5 345.5 253.111 345.5 245.5 338.113 245.5 329Z" stroke="#404040" stroke-width="4.58333" stroke-miterlimit="8" fill="#404040" fill-rule="evenodd"/><path d="M321.5 351C321.5 341.887 329.111 334.5 338.5 334.5 347.889 334.5 355.5 341.887 355.5 351 355.5 360.113 347.889 367.5 338.5 367.5 329.111 367.5 321.5 360.113 321.5 351Z" stroke="#404040" stroke-width="4.58333" stroke-miterlimit="8" fill="#404040" fill-rule="evenodd"/><g><g><g><path d="M619.541 197.5C619.541 207.407 611.51 215.437 601.603 215.437 591.696 215.437 583.666 207.407 583.666 197.5 583.666 187.593 591.696 179.562 601.603 179.562 611.51 179.562 619.541 187.593 619.541 197.5Z" fill="#404040"/><path d="M706.836 137.708C701.754 129.039 690.394 124.853 674.848 124.853 664.982 124.853 653.622 126.647 641.066 129.935 632.396 98.5448 618.046 77.9166 601.603 77.9166 585.459 77.9166 570.81 98.2458 562.44 129.337 550.481 126.348 539.719 124.554 530.152 124.554 514.606 124.554 503.246 128.74 498.163 137.409 489.793 151.759 500.854 174.779 523.874 198.098 501.751 220.819 491.586 242.942 499.658 256.993 504.741 265.663 516.101 269.848 531.647 269.848 540.616 269.848 551.079 268.353 562.44 265.663 571.109 296.754 585.459 317.083 601.603 317.083 617.747 317.083 632.396 296.754 640.767 265.663 652.725 268.652 663.487 270.446 673.054 270.446 688.6 270.446 699.96 266.26 705.043 257.591 713.115 243.54 702.95 221.417 680.827 198.696 704.445 175.078 715.207 152.058 706.836 137.708ZM674.848 136.811C685.909 136.811 693.981 139.502 696.373 143.687 700.857 151.46 692.785 169.697 672.456 190.026 665.281 183.449 657.209 176.872 648.241 170.594 647.344 160.429 645.849 150.564 643.756 141.296 655.117 138.306 665.879 136.811 674.848 136.811ZM621.334 228.592C615.056 232.179 608.778 235.468 602.5 238.457 596.222 235.468 589.944 232.179 583.666 228.592 577.686 225.004 571.707 221.417 566.326 217.829 565.728 211.252 565.728 204.675 565.728 197.5 565.728 190.923 566.027 184.645 566.326 178.367 572.305 174.181 578.583 170.295 585.459 166.408 591.14 163.12 596.82 160.13 602.5 157.44 608.18 160.13 613.86 163.12 619.541 166.408 625.52 169.996 631.499 173.583 636.88 177.171 637.478 183.748 637.478 190.325 637.478 197.5 637.478 204.974 637.179 212.149 636.581 219.025 631.798 222.314 626.716 225.303 621.334 228.592ZM635.086 234.272C634.19 239.952 633.293 245.632 632.396 250.715 627.313 248.921 621.932 247.127 616.551 244.735 620.138 242.942 623.726 240.849 627.313 238.756 630.004 237.261 632.695 235.767 635.086 234.272ZM588.449 244.735C582.47 247.127 576.789 249.22 571.109 251.014 569.913 245.333 569.017 239.354 568.12 233.076 571.408 235.169 574.398 236.962 577.985 239.055 581.274 240.849 584.861 242.942 588.449 244.735ZM554.069 208.86C549.285 205.273 545.1 201.685 541.213 198.098 545.1 194.51 549.584 190.923 554.069 187.335 554.069 190.624 553.77 193.912 553.77 197.5 553.77 201.386 553.77 205.273 554.069 208.86ZM567.821 163.12C568.718 156.543 569.615 150.265 570.81 144.285 576.491 146.079 582.47 148.471 588.449 150.862 585.459 152.357 582.171 154.151 579.181 155.945 575.594 158.336 571.707 160.728 567.821 163.12ZM616.252 150.862C621.633 148.471 627.015 146.677 632.396 144.883 633.592 150.265 634.488 155.945 635.385 161.924 632.097 159.831 629.107 158.037 625.52 155.945 622.53 154.45 619.541 152.656 616.252 150.862ZM649.137 186.14C654.519 190.325 659.302 194.211 663.786 198.397 659.302 202.283 654.519 206.469 649.137 210.355 649.436 206.17 649.436 201.984 649.436 197.799 649.436 193.614 649.436 189.727 649.137 186.14ZM601.603 89.875C610.572 89.875 622.231 105.72 629.705 133.224 621.035 136.214 611.768 139.801 602.5 143.986 592.634 139.502 583.068 135.616 573.8 132.626 581.274 105.421 592.634 89.875 601.603 89.875ZM508.328 143.687C511.019 139.203 518.792 136.811 529.853 136.811 538.523 136.811 548.388 138.306 559.151 140.997 557.058 150.564 555.563 161.027 554.667 171.79 546.296 177.769 538.822 183.748 532.245 190.026 512.214 169.697 503.844 151.46 508.328 143.687ZM531.647 258.189C520.585 258.189 512.513 255.498 510.122 251.312 505.637 243.54 513.41 226.2 532.544 206.469 539.42 212.448 546.894 218.427 554.966 224.406 555.862 234.87 557.357 245.034 559.45 254.302 549.584 256.993 540.018 258.189 531.647 258.189ZM601.603 305.125C592.634 305.125 581.274 289.579 573.8 262.673 583.068 259.683 592.634 256.096 602.5 251.611 611.768 255.797 620.736 259.384 629.406 262.075 621.932 289.579 610.572 305.125 601.603 305.125ZM694.878 251.312C692.187 255.797 684.415 258.189 673.353 258.189 664.683 258.189 654.519 256.694 644.055 254.003 645.849 245.034 647.344 235.767 648.241 225.602 657.209 219.324 665.281 213.046 672.456 206.469 691.59 226.2 699.362 243.54 694.878 251.312Z" fill="#404040"/></g></g></g></g></svg>
